static/logo.svg

<?xml version="1.0" encoding="utf-8"?>
<!-- Generator: Adobe Illustrator 25.2.0, SVG Export Plug-In . SVG Version: 6.00 Build 0)  -->
<svg version="1.1" id="Layer_1" xmlns="http://www.w3.org/2000/svg" xmlns:xlink="http://www.w3.org/1999/xlink" x="0px" y="0px"
	 viewBox="0 0 149 165" style="enable-background:new 0 0 149 165;" xml:space="preserve">
<style type="text/css">
	.st0{fill:#FFFFFF;}
	.st1{fill:#8BC3F5;}
</style>
<path class="st0" d="M88.61,160.69L147.72,8.14c1.34-3.47-1.22-7.21-4.94-7.21h-17.13c-2.24,0-4.24,1.41-4.99,3.52L74.5,134.43
	L28.34,4.45c-0.75-2.11-2.75-3.52-4.99-3.52H6.22c-3.72,0-6.28,3.74-4.94,7.21l59.11,152.55c0.79,2.04,2.75,3.38,4.94,3.38h18.35
	C85.86,164.07,87.82,162.73,88.61,160.69z"/>
<path class="st1" d="M39.29,0.93c-3.22,0-5.31,3.38-3.87,6.26c10.61,21.22,24.37,48.75,35.22,70.44c1.6,3.19,6.14,3.19,7.74,0
	c10.84-21.69,24.61-49.22,35.22-70.44c1.44-2.88-0.66-6.26-3.87-6.26C109.73,0.93,39.29,0.93,39.29,0.93z"/>
</svg>

<svg
    xmlns="http://www.w3.org/2000/svg"
    viewBox="0 0 149 165"
	width="149" height="165"
    fill="none">
    <path
        d="M 88.61 160.69 L 147.72 8.14 C 149.06 4.67 146.5 0.93 142.78 0.93 L 125.65 0.93 C 123.41 0.93 121.41 2.34 120.66 4.45 L 74.5 134.43 L 28.34 4.45 C 27.59 2.34 25.59 0.93 23.35 0.93 L 6.22 0.93 C 2.5 0.93 -0.06 4.67 1.28 8.14 L 60.39 160.69 C 61.18 162.73 63.14 164.07 65.33 164.07 L 83.68 164.07 C 85.86 164.07 87.82 162.73 88.61 160.69 Z"
        fill="#ffffff"/>
    <path
        fill-rule="evenodd" clip-rule="evenodd"
        d="M 39.29 0.93 C 36.07 0.93 33.98 4.31 35.42 7.19 C 46.03 28.41 59.79 55.94 70.64 77.63 C 72.24 80.82 76.78 80.82 78.38 77.63 C 89.22 55.94 102.99 28.41 113.6 7.19 C 115.04 4.31 112.94 0.93 109.73 0.93 L 39.29 0.93 Z"
        fill="#8bc3f5"/>
</svg>
